icon/lg/overloop.svg

<?xml version="1.0" encoding="UTF-8"?>
<svg viewBox="0 0 512 100" version="1.1" xmlns="http://www.w3.org/2000/svg" preserveAspectRatio="xMidYMid" height="1em" width="1em">
  <defs>
    <linearGradient x1="100.000913%" y1="-7.14131612%" x2="0.00217923797%" y2="92.8552117%" id="overloopLinearGradient-1">
      <stop stop-color="#9933CC" offset="0%"/>
      <stop stop-color="#FF8800" offset="100%"/>
    </linearGradient>
  </defs>
  <g>
    <path d="M65.1183381,65.7445905 C65.8045574,74.5196644 63.3725677,82.1036323 57.1574829,88.3151615 C49.0579617,96.4182383 28.1942279,100.716887 5.67698997,99.2804484 C4.27276481,99.1915599 2.94920775,98.593518 1.95430352,97.5986777 C0.959402848,96.6038375 0.361464048,95.2801098 0.272552781,93.8760268 C-1.16032861,71.3623445 3.13831984,50.4984329 11.2414108,42.3989116 C17.4529401,36.1873824 25.0369079,33.7518372 33.8119819,34.4380565 C37.0651236,34.6940554 40.211777,35.2878307 43.817095,36.3189374 C42.1993241,31.6825126 41.3388833,28.2620827 40.9015518,24.6283203 C39.9735557,16.923464 41.751326,10.377714 46.9210819,5.20795813 C53.0935002,-0.964460157 63.5539003,-1.87467852 70.071206,3.6861868 C73.6487908,1.29938803 77.9435282,0.22693035 82.2229767,0.651604106 C86.5027808,1.07627786 90.5027639,2.9717365 93.5413288,6.01506582 C96.5838048,9.05359517 98.4789078,13.0529027 98.9034394,17.3317823 C99.3283265,21.610662 98.256331,25.9044038 95.8702078,29.4816331 C101.431073,36.0024943 100.520855,46.4628944 94.3484364,52.6353127 C89.1786806,57.8050686 82.6329305,59.5828388 74.9280743,58.6548428 C71.2943119,58.2210668 67.873882,57.3535149 63.2374572,55.7392996 C60.654357,54.8258812 58.0890345,53.8623297 55.5432676,52.8486451 L52.0943933,51.4868731 C51.0952864,51.0957637 50.1281794,50.7224319 49.1895167,50.3704334 C43.8739837,48.3651086 39.4828912,47.0104477 35.7531292,46.334895 C29.9399983,45.2788994 25.7622382,45.8833413 22.1569201,48.2975533 C21.1715021,48.9638616 20.2544571,49.7261695 19.419154,50.5730992 C14.7258405,55.2699682 11.2414108,70.5374591 11.5969649,87.9560519 C29.0191133,88.311606 44.2864264,84.8342874 48.9832953,80.1374184 C54.3343838,74.78633 55.0277142,68.596134 51.6570618,57.531292 L53.4241654,58.2281779 C58.0641458,60.0557257 61.6410195,61.3641646 64.716562,62.3170495 C64.894339,63.4619335 65.0294496,64.5961509 65.1183381,65.7445905 Z M57.4703705,39.7784783 L58.1210344,41.4353602 L59.7779163,42.0860241 C75.3796279,48.2299981 81.6444903,48.9837726 86.1706933,44.4575696 C88.3217953,42.3100231 88.5635721,38.4700394 86.9031347,36.8060465 C86.3797591,36.2791154 85.7422507,35.8791171 85.0400314,35.6362736 C80.3751623,34.0256138 79.7422761,27.6931962 83.9947025,25.1900957 C85.1495421,24.5067564 86.0839381,23.5066184 86.6876689,22.308259 C87.2910441,21.1098996 87.5381542,19.7636298 87.3994881,18.4290577 C87.2611776,17.0944855 86.7427798,15.8276465 85.9061611,14.7787265 C85.0695424,13.7297709 83.9495472,12.9427876 82.6791526,12.5110383 C81.1541812,11.9857427 79.4948105,12.0023471 77.9805058,12.5580781 C76.4662011,13.1137735 75.1897621,14.1746046 74.3662989,15.561692 C71.8631984,19.8141185 65.5307808,19.1812323 63.9201209,14.5163631 C63.6765664,13.8139306 63.2751459,13.1765999 62.7467926,12.6532599 C61.0899107,10.9928225 57.2463714,11.2345993 55.098825,13.3857013 C50.5726219,17.9119043 51.3299521,24.1767666 57.4703705,39.7784783 L57.4703705,39.7784783 Z" fill="url(#overloopLinearGradient-1)"/>
    <path d="M168.659233,76.5676557 C150.134867,76.5676557 135.112708,61.0192772 135.112708,41.8371363 C135.112708,22.6585509 150.131311,7.11017229 168.659233,7.11017229 C187.187154,7.11017229 202.209313,22.6585509 202.209313,41.8406918 C202.209313,61.0192772 187.187154,76.5676557 168.659233,76.5676557 Z M168.659233,64.9908159 C180.712515,64.9908159 190.639584,54.7117484 190.639584,41.8406918 C190.639584,28.9660797 180.708959,18.6870121 168.659233,18.6870121 C156.609506,18.6870121 146.682437,28.9625241 146.682437,41.8371363 C146.682437,54.7117484 156.609506,64.9908159 168.659233,64.9908159 Z M353.703782,75.4085495 L344.44871,75.4085495 C344.142222,75.4085495 343.848179,75.2869501 343.631647,75.0700621 C343.414759,74.8535297 343.293159,74.5594865 343.293159,74.2529989 L343.293159,9.42127361 C343.293159,8.78127632 343.808713,8.26572295 344.44871,8.26572295 L353.703782,8.26572295 C354.343779,8.26572295 354.859333,8.78127632 354.859333,9.42127361 L354.859333,74.2494433 C354.859333,74.8894406 354.343779,75.404994 353.703782,75.404994 L353.703782,75.4085495 L353.703782,75.4085495 Z M299.293346,64.1445973 C299.535834,64.2235303 299.743122,64.3838852 299.880721,64.5982842 C300.017965,64.8130389 300.076987,65.0683267 300.04712,65.3214812 C300.028276,65.4896582 299.971032,65.6514353 299.88001,65.7943681 C295.577806,72.372118 288.274726,76.5676557 280.17876,76.5676557 C267.037482,76.5676557 256.463305,65.6414798 256.463305,52.2584254 C256.463305,38.9109264 266.735262,27.9456396 279.599207,27.9456396 C292.463153,27.9456396 302.735109,38.9109264 302.735109,52.2584254 C302.735109,53.4993091 302.64622,54.7259705 302.471999,55.9348543 C302.432532,56.2022309 302.297066,56.4464966 302.091201,56.6217847 C301.884979,56.7970729 301.62258,56.8916502 301.352004,56.8877391 L268.857919,56.8877391 C270.344135,61.9366066 275.055226,65.570369 280.17876,65.570369 C283.449857,65.570369 286.728066,63.9561536 288.772501,61.3926089 C288.930012,61.1885209 289.146544,61.037766 289.392943,60.9613219 C289.639342,60.8852333 289.903163,60.8866555 290.148496,60.9659441 L299.293346,64.1445973 L299.293346,64.1445973 Z M290.67116,47.6255562 C289.401832,42.5553554 284.591186,38.9464818 279.599207,38.9464818 C274.74945,38.9464818 270.230358,42.5553554 268.818808,47.6255562 L290.67116,47.6255562 Z M217.850135,29.1047458 C218.312356,29.1047458 218.731909,29.3820779 218.916797,29.8087428 L231.012746,58.2957332 L243.112251,29.8087428 C243.201495,29.599677 243.350116,29.4215444 243.539626,29.2963894 C243.729492,29.1712344 243.951714,29.1047458 244.178913,29.1047458 L254.230426,29.1047458 C255.062422,29.1047458 255.620642,29.9509644 255.297088,30.7154056 L236.634056,74.654775 C236.545523,74.8634852 236.397257,75.0416178 236.208458,75.1667728 C236.019303,75.2919278 235.797793,75.3587847 235.570949,75.3587847 L226.454543,75.3587847 C226.226989,75.3598386 226.004412,75.2937056 225.814546,75.168195 C225.62468,75.04304 225.476414,74.8641963 225.387881,74.654775 L206.728405,30.7154056 C206.653738,30.5394063 206.624227,30.3474072 206.641649,30.1568302 C206.659427,29.9666088 206.723782,29.7834984 206.829382,29.6238547 C206.934982,29.4642109 207.078625,29.333367 207.247158,29.2430563 C207.415691,29.15239 207.603779,29.1047458 207.795067,29.1047458 L217.850135,29.1047458 Z M337.44074,30.3065184 L337.44074,39.5509237 C337.44074,40.2620318 336.804298,40.8060295 336.096745,40.7526964 C335.411593,40.7032744 334.725018,40.6794523 334.038087,40.6815856 C325.643456,40.6815856 321.312808,45.019345 321.312808,53.4317538 L321.248808,74.2672211 C321.247742,74.5740642 321.125431,74.8677518 320.908188,75.0846398 C320.690944,75.3011722 320.396545,75.4227717 320.089702,75.4227717 L310.83463,75.3943274 C310.682453,75.3943274 310.532054,75.3644608 310.39161,75.30615 C310.251166,75.2478391 310.123522,75.1621506 310.016145,75.0547733 C309.908767,74.9470404 309.82379,74.8190409 309.76619,74.6785971 C309.708235,74.5377977 309.678724,74.3873983 309.679076,74.2352212 L309.743079,53.4139761 C309.743079,38.6335943 319.25415,29.1047458 334.038087,29.1047458 C334.852306,29.1047458 335.634525,29.126079 336.3883,29.1687455 C336.985631,29.2043009 337.44074,29.7056321 337.44074,30.3065184 L337.44074,30.3065184 Z M408.007552,52.2584254 C408.007552,65.6841463 397.390708,76.5676557 384.292097,76.5676557 C371.193486,76.5676557 360.576642,65.6841463 360.576642,52.2584254 C360.576642,38.8327045 371.193486,27.9456396 384.292097,27.9456396 C397.390708,27.9456396 408.007552,38.8327045 408.007552,52.2584254 L408.007552,52.2584254 Z M372.14637,52.2584254 C372.14637,59.3517287 377.646792,64.9908159 384.292097,64.9908159 C390.937402,64.9908159 396.437823,59.3517287 396.437823,52.2584254 C396.437823,45.1615666 390.937402,39.5224794 384.292097,39.5224794 C377.646792,39.5224794 372.14637,45.1615666 372.14637,52.2584254 L372.14637,52.2584254 Z M436.348765,76.5676557 C423.250154,76.5676557 412.63331,65.6841463 412.63331,52.2584254 C412.63331,38.8327045 423.250154,27.9456396 436.348765,27.9456396 C449.447376,27.9456396 460.06422,38.8327045 460.06422,52.2584254 C460.06422,65.6841463 449.447376,76.5676557 436.348765,76.5676557 L436.348765,76.5676557 L436.348765,76.5676557 Z M436.348765,64.9908159 C442.99407,64.9908159 448.494491,59.3517287 448.494491,52.2584254 C448.494491,45.1615666 442.99407,39.5224794 436.348765,39.5224794 C429.70346,39.5224794 424.203039,45.1615666 424.203039,52.2584254 C424.203039,59.3517287 429.70346,64.9908159 436.348765,64.9908159 Z M488.864098,27.9456396 C501.642711,27.9456396 512,38.8327045 512,52.2584254 C512,65.6841463 501.642711,76.5676557 488.864098,76.5676557 C484.782338,76.5683669 480.778799,75.4426827 477.294369,73.3143362 L477.294369,92.7738093 C477.294369,93.4138066 476.778816,93.9329155 476.138819,93.9329155 L466.883747,93.9329155 C466.656192,93.9318488 466.432193,93.8635825 466.240194,93.7366497 C466.05175,93.6093613 465.902418,93.4290954 465.813529,93.2182519 C465.75664,93.0770969 465.728196,92.9259864 465.728196,92.7738093 L465.728196,52.2584254 C465.728196,38.8327045 476.085486,27.9456396 488.864098,27.9456396 L488.864098,27.9456396 Z M500.430271,52.2584254 C500.430271,45.1011224 495.121849,39.5224794 488.864098,39.5224794 C482.602791,39.5224794 477.294369,45.104678 477.294369,52.2584254 C477.294369,59.4121729 482.602791,64.9908159 488.864098,64.9908159 C495.121849,64.9908159 500.430271,59.4121729 500.430271,52.2584254 Z" fill="#171C24"/>
  </g>
</svg>

<svg width="512" height="100" xmlns="http://www.w3.org/2000/svg" preserveAspectRatio="xMidYMid"><defs><linearGradient x1="100.001%" y1="-7.141%" x2=".002%" y2="92.855%" id="a"><stop stop-color="#93C" offset="0%"/><stop stop-color="#F80" offset="100%"/></linearGradient></defs><path d="M65.118 65.745c.687 8.775-1.745 16.359-7.96 22.57-8.1 8.103-28.964 12.402-51.481 10.965a5.781 5.781 0 0 1-5.404-5.404C-1.16 71.362 3.138 50.498 11.24 42.399c6.212-6.212 13.796-8.647 22.571-7.96 3.253.255 6.4.849 10.005 1.88-1.618-4.636-2.478-8.057-2.915-11.69-.928-7.706.85-14.251 6.02-19.421 6.172-6.172 16.632-7.083 23.15-1.522a18.589 18.589 0 0 1 23.47 2.33 18.588 18.588 0 0 1 2.328 23.466c5.561 6.52 4.65 16.98-1.522 23.153-5.17 5.17-11.715 6.948-19.42 6.02-3.634-.434-7.054-1.301-11.69-2.916a210.495 210.495 0 0 1-7.695-2.89l-3.449-1.362c-.999-.391-1.966-.765-2.904-1.117-5.316-2.005-9.707-3.36-13.437-4.035-5.813-1.056-9.99-.452-13.596 1.963a18.031 18.031 0 0 0-2.738 2.275c-4.693 4.697-8.178 19.964-7.822 37.383 17.422.356 32.69-3.122 37.386-7.819 5.351-5.35 6.045-11.54 2.674-22.606l1.767.697c4.64 1.828 8.217 3.136 11.293 4.089.177 1.145.312 2.28.401 3.428ZM57.47 39.778l.651 1.657 1.657.651c15.602 6.144 21.866 6.898 26.393 2.372 2.15-2.148 2.393-5.988.732-7.652a4.868 4.868 0 0 0-1.863-1.17c-4.665-1.61-5.298-7.943-1.045-10.446a7.016 7.016 0 0 0-1.316-12.679 7.01 7.01 0 0 0-8.313 3.05c-2.503 4.253-8.835 3.62-10.446-1.045a4.866 4.866 0 0 0-1.173-1.863c-1.657-1.66-5.5-1.418-7.648.733-4.526 4.526-3.769 10.79 2.371 26.392Z" fill="url(#a)"/><path d="M168.66 76.568c-18.525 0-33.547-15.549-33.547-34.73 0-19.18 15.018-34.728 33.546-34.728s33.55 15.549 33.55 34.73c0 19.18-15.022 34.728-33.55 34.728Zm0-11.577c12.053 0 21.98-10.28 21.98-23.15 0-12.875-9.931-23.154-21.98-23.154-12.05 0-21.978 10.276-21.978 23.15 0 12.875 9.928 23.154 21.977 23.154Zm185.044 10.418h-9.255a1.154 1.154 0 0 1-1.156-1.156V9.421c0-.64.516-1.155 1.156-1.155h9.255c.64 0 1.155.515 1.155 1.155V74.25c0 .64-.515 1.156-1.155 1.156v.004Zm-54.41-11.264a1.104 1.104 0 0 1 .586 1.65c-4.302 6.577-11.605 10.773-19.701 10.773-13.142 0-23.716-10.927-23.716-24.31 0-13.347 10.272-24.312 23.136-24.312 12.864 0 23.136 10.965 23.136 24.312 0 1.241-.089 2.468-.263 3.677a1.117 1.117 0 0 1-1.12.953h-32.494c1.486 5.049 6.197 8.682 11.32 8.682 3.272 0 6.55-1.614 8.595-4.177a1.253 1.253 0 0 1 1.375-.427l9.145 3.179Zm-8.623-16.52c-1.27-5.07-6.08-8.679-11.072-8.679-4.85 0-9.369 3.61-10.78 8.68h21.852Zm-72.82-18.52c.461 0 .88.277 1.066.704l12.096 28.487 12.1-28.487a1.16 1.16 0 0 1 1.066-.704h10.051c.832 0 1.39.846 1.067 1.61l-18.663 43.94a1.157 1.157 0 0 1-1.063.704h-9.116a1.15 1.15 0 0 1-1.067-.704l-18.66-43.94a1.16 1.16 0 0 1 1.067-1.61h10.055Zm119.59 1.202v9.244c0 .711-.637 1.255-1.344 1.202a27.428 27.428 0 0 0-2.059-.071c-8.395 0-12.725 4.337-12.725 12.75l-.064 20.835a1.16 1.16 0 0 1-1.16 1.156l-9.254-.029a1.155 1.155 0 0 1-1.156-1.159l.064-20.821c0-14.78 9.511-24.31 24.295-24.31.814 0 1.597.022 2.35.065a1.128 1.128 0 0 1 1.053 1.138Zm70.567 21.951c0 13.426-10.617 24.31-23.716 24.31s-23.715-10.884-23.715-24.31c0-13.425 10.616-24.312 23.715-24.312s23.716 10.887 23.716 24.312Zm-35.862 0c0 7.094 5.5 12.733 12.146 12.733 6.645 0 12.146-5.64 12.146-12.733 0-7.096-5.5-12.736-12.146-12.736-6.645 0-12.146 5.64-12.146 12.736Zm64.203 24.31c-13.099 0-23.716-10.884-23.716-24.31 0-13.425 10.617-24.312 23.716-24.312 13.098 0 23.715 10.887 23.715 24.312 0 13.426-10.617 24.31-23.715 24.31Zm0-11.577c6.645 0 12.145-5.64 12.145-12.733 0-7.096-5.5-12.736-12.145-12.736-6.646 0-12.146 5.64-12.146 12.736 0 7.094 5.5 12.733 12.146 12.733Zm52.515-37.045c12.779 0 23.136 10.887 23.136 24.312 0 13.426-10.357 24.31-23.136 24.31a22.188 22.188 0 0 1-11.57-3.254v19.46c0 .64-.515 1.159-1.155 1.159h-9.255a1.178 1.178 0 0 1-.644-.196 1.18 1.18 0 0 1-.426-.519 1.189 1.189 0 0 1-.086-.444V52.258c0-13.425 10.357-24.312 23.136-24.312Zm11.566 24.312c0-7.157-5.308-12.736-11.566-12.736-6.261 0-11.57 5.583-11.57 12.736 0 7.154 5.309 12.733 11.57 12.733 6.258 0 11.566-5.579 11.566-12.733Z" fill="#171C24"/></svg>
